X: 639
T: Adamstown Sisters, The
R: reel
M: 4/4
K: Gmajor
BGGF GzdB|cAAG A2 Bc|d2 B/c/d gdBG|BAAG ~A2 ~A2|
BGGF GBdB|cAAG A2 Bc|d2 B/c/d gdBG|AG F/G/A Gd^cd|
B2 BA GBdB|cABG A2 Bc|d2 B/c/d gdBG|BAAG ~A2 ~A2|
BGGF GBdB|c3 B A2 Bc|d2 B/c/d gdBG AG F/G/A G2 Bc|
|:d2 B/c/d gdBG|d2 B/c/d gdBG|d2 B/c/d gdBG|BAAG A2 Bc|
d2 B/c/d gdBG|DGBd ~g2 fg|egge dBAB|1 cAFA G2 Bc:|2 cAFA G2 GA||

